icons/purescript.svg

<?xml version="1.0" encoding="UTF-8" standalone="no"?>
<svg
   xmlns:dc="http://purl.org/dc/elements/1.1/"
   xmlns:cc="http://creativecommons.org/ns#"
   xmlns:rdf="http://www.w3.org/1999/02/22-rdf-syntax-ns#"
   xmlns:svg="http://www.w3.org/2000/svg"
   xmlns="http://www.w3.org/2000/svg"
   xmlns:sodipodi="http://sodipodi.sourceforge.net/DTD/sodipodi-0.dtd"
   xmlns:inkscape="http://www.inkscape.org/namespaces/inkscape"
   version="1.1"
   id="Layer_1"
   x="0px"
   y="0px"
   width="100"
   height="100"
   viewBox="0 0 100 99.999997"
   enable-background="new 0 0 821.326 907.827"
   xml:space="preserve"
   sodipodi:docname="purescript.svg"
   inkscape:version="0.92.1 r15371"><metadata
     id="metadata145"><rdf:RDF><cc:Work
         rdf:about=""><dc:format>image/svg+xml</dc:format><dc:type
           rdf:resource="http://purl.org/dc/dcmitype/StillImage" /><dc:title></dc:title></cc:Work></rdf:RDF></metadata><defs
     id="defs143" /><sodipodi:namedview
     pagecolor="#ffffff"
     bordercolor="#666666"
     borderopacity="1"
     objecttolerance="10"
     gridtolerance="10"
     guidetolerance="10"
     inkscape:pageopacity="0"
     inkscape:pageshadow="2"
     inkscape:window-width="1366"
     inkscape:window-height="705"
     id="namedview141"
     showgrid="false"
     inkscape:zoom="3.6203867"
     inkscape:cx="78.578828"
     inkscape:cy="50"
     inkscape:window-x="-8"
     inkscape:window-y="-8"
     inkscape:window-maximized="1"
     inkscape:current-layer="Layer_1" /><path
     clip-path="url(#SVGID_2_)"
     d="M 98.078937,38.547822 79.22076,19.680116 74.134392,24.767676 90.446997,41.089816 74.134392,57.410762 79.22076,62.49713 98.078937,43.636574 c 0.679285,-0.681679 1.054685,-1.587404 1.054685,-2.549143 -0.003,-0.961737 -0.37659,-1.862697 -1.054685,-2.539609"
     id="path52"
     inkscape:connector-curvature="0"
     style="display:inline;fill:#42a5f5;fill-opacity:1;stroke-width:1.19174492" /><path
     clip-path="url(#SVGID_2_)"
     d="M 25.482597,42.79401 20.393846,37.705259 1.5285196,56.568198 c -0.67691114,0.676911 -1.05111904,1.582638 -1.04873554,2.544375 0,0.961739 0.3718244,1.863891 1.04873554,2.541993 L 20.393846,80.519889 25.482597,75.433522 9.1616491,59.112573 Z"
     id="path50"
     inkscape:connector-curvature="0"
     style="display:inline;fill:#42a5f5;fill-opacity:1;stroke-width:1.19174492" /><polygon
     clip-path="url(#SVGID_2_)"
     points="281.841,551.736 288.302,557.773 316.681,557.773 310.22,551.736 "
     id="polygon48"
     style="display:inline;fill:#42a5f5;fill-opacity:1"
     transform="matrix(1.191745,0,0,1.191745,-306.83908,-629.04743)" /><polygon
     clip-path="url(#SVGID_2_)"
     points="288.302,566.861 281.839,572.896 310.22,572.896 316.683,566.861 "
     id="polygon46"
     style="display:inline;fill:#42a5f5;fill-opacity:1"
     transform="matrix(1.191745,0,0,1.191745,-306.83908,-629.04743)" /><polygon
     clip-path="url(#SVGID_2_)"
     points="281.838,581.982 288.302,588.017 316.683,588.017 310.22,581.982 "
     id="polygon44"
     style="display:inline;fill:#42a5f5;fill-opacity:1"
     transform="matrix(1.191745,0,0,1.191745,-306.83908,-629.04743)" /></svg>

<svg width="100" height="100" enable-background="new 0 0 821.326 907.827" version="1.1" viewBox="0 0 100 99.999997" xml:space="preserve" xmlns="http://www.w3.org/2000/svg"><g transform="translate(.1933 -.1)" fill="#42a5f5"><path d="m98.079 38.548-18.858-18.868-5.0864 5.0876 16.313 16.322-16.313 16.321 5.0864 5.0864 18.858-18.861c.67928-.68168 1.0547-1.5874 1.0547-2.5491-.003-.96174-.37659-1.8627-1.0547-2.5396" clip-path="url(#SVGID_2_)" stroke-width="1.1917"/><path d="m25.483 42.794-5.0888-5.0888-18.865 18.863c-.67691.67691-1.0511 1.5826-1.0487 2.5444 0 .96174.37182 1.8639 1.0487 2.542l18.865 18.865 5.0888-5.0864-16.321-16.321z" clip-path="url(#SVGID_2_)" stroke-width="1.1917"/><polygon transform="matrix(1.1917 0 0 1.1917 -306.84 -629.05)" points="316.68 557.77 310.22 551.74 281.84 551.74 288.3 557.77" clip-path="url(#SVGID_2_)"/><polygon transform="matrix(1.1917 0 0 1.1917 -306.84 -629.05)" points="310.22 572.9 316.68 566.86 288.3 566.86 281.84 572.9" clip-path="url(#SVGID_2_)"/><polygon transform="matrix(1.1917 0 0 1.1917 -306.84 -629.05)" points="316.68 588.02 310.22 581.98 281.84 581.98 288.3 588.02" clip-path="url(#SVGID_2_)"/></g></svg>
